X:35
T: An sealbhán, S. 34
N: I0534
O: Irland
S: O'SULLIVAN, Donal: Song of the Irish]
R: Arbeitslied]
M: 6/8
L: 1/16
K: Bb
 | d2c2B2F2D2F2 | G2B2B2B4z2
d2c2B2F2D2F2 | G2B2B2B6
d2c2B2F2D2F2 | G2B2B2B6
B2c2d2e4c2 | d4B2c4B2
d4d2f2e2d2 | e4d2c4
c2 | f4d2e4c2 | d4c2B2F2F
F | G2F2E2D2E2F2 | G2B2B2B4z2
B2c2d2e4c2 | d3dB2c4B2
d3de2f2e2dd | e2e2d2c4z2
f3fd2e2e2c2 | d2d2c2B2F2F2
G2F2E2D2E2F2 | G2B2B2B6

